!!!COM: Vivaldi, Antonio Lucio
!!!CDT: 1678/03/04-1741/08/28
!!!OPR: 12 Sonatas for Violin and Basso continuo
!!!OTL: Sonata in F minor, op. @{OPS}, no. @{ONM} (@{SCT})
!!!OPS: 2
!!!ONM: 10
!!!OMV: 3. Giga
!!!SCT: RV 21
!!!SCA: Antonio Vivaldi: Thematisch-systematisches Verzeichnis seiner Werke (Ryom-Verzeichnis)
!!!OMD: Allegro
!!!key: f
**kern	**fb	**kern
*part2	*	*part1
*staff2	*	*staff1
*ICklav	*	*ICstr
*Icemba	*	*Ivioln
*I"Basso continuo	*	*I"Violino
*I'bc	*	*I'v
*>[A,A,B,B1,B,B2]	*>[A,A,B,B1,B,B2]	*>[A,A,B,B1,B,B2]
*>norep[A,B,B2]	*>norep[A,B,B2]	*>norep[A,B,B2]
*>A	*>A	*>A
*clefF4	*	*clefG2
*k[b-e-a-d-]	*	*k[b-e-a-d-]
*f:	*	*f:
*M12/8	*	*M12/8
*MM220	*	*MM220
8r	.	8cc\
=1	=1	=1
4.F\	.	(8ff\L
.	.	8een\
.	.	8ff\J)
4.E-y\	6 4 2	(8ff\L
.	.	8ee\
.	.	8ff\J)
4.D-y\	.	(8ff\L
.	.	8ee\
.	.	8ff\J)
4.AA-y/	6	8r
.	.	8r
.	.	8ff\
=2	=2	=2
4.BB-y/	6	(8gg\L
.	.	8aa-y\
.	.	8bb-y\J)
4.C/	6	(8aa-y\L
.	.	8bb-y\
.	.	8gg\J)
4.F\	.	(8aa-y\L
.	.	8gg\
.	.	8ff\J)
4r	.	8r
.	.	8r
8r	.	8ff\
=3	=3	=3
4.A-y\	6	(8ff\L
.	.	8ee-y\
.	.	8ff\J)
4.An\	5	(8ee-y\L
.	.	8dd\
.	.	8ee-y\J)
4.B-y\	n	(8dd\L
.	.	8cc\
.	.	8dd\J)
4.BB-y/	.	4dd\
.	.	8dd\
!!LO:LB:g=original
=4	=4	=4
4.B-y\	6 n	(8gg\L
.	.	8ff\
.	.	8gg\J)
4.Bn\	5	(8ff\L
.	.	8een\
.	.	8ff\J)
4.c\	n	(8ee\L
.	.	8ddn\
.	.	8ee\J)
4.C/	.	4ee\
.	.	8ee\
=5	=5	=5
4.c\	6	(8aa-y\L
.	.	8gg\
.	.	8aa-y\J)
4.C/	5	(8gg\L
.	.	8ff\
.	.	8gg\J)
4.D-y\	7	(8ff\L
.	.	8een\
.	.	8ff\J)
4.F\	5	(8ff\L
.	.	8gg\
.	.	8aa-y\J)
=6	=6	=6
4.G\	6nr	(8bb-y\L
.	.	8aa-y\
.	.	8gg\J)
4.F\	.	(8aa-y\L
.	.	8gg\
.	.	8ff\J)
4.En\	6	[4.cc\
4.C/	n	8cc\L]
.	.	(8gg\
.	.	8aa-y\J)
=7	=7	=7
4.G\	6nr	(8bb-y\L
.	.	8aa-y\
.	.	8gg\J)
4.F\	.	(8aa-y\L
.	.	8gg\
.	.	8ff\J)
4.En\	5	[4.b-y\
4.C/	7 n	8b-y\L]
.	.	(8cc\
.	.	8b-y\J)
=8	=8	=8
4F\	.	(8a-y/L
.	.	8g/
8B-y\	.	8f/J)
4c\	n	(8c/L
.	.	8dn/
8C/	.	8en/J)
4.F\	.	4.f/
4.En\	6	4cc\
.	.	8b-y\
!!LO:LB:g=original
=9	=9	=9
4.F\	5	(8a-y/L
.	.	8g/
.	.	8f/J)
4.F\	6	4dd-y\
.	.	8cc\
4.G\	n	(8bn/L
.	.	8an/
.	.	8g/J)
4.BBn/	6 n	4gg\
.	.	8ff\
=10	=10	=10
4.C/	5	(8ee-y\L
.	.	8ddn\
.	.	8cc\J)
4.c\	6	4aa-y\
.	.	8gg\
4.dn\	7	(8ff\L
.	.	8gg\)
.	.	8ee-y\J
4.F\	6nr	(8dd\L
.	.	8ee-y\)
.	.	8cc\J
=11	=11	=11
4.G\	n	(8bn/L
.	.	8an/)
.	.	8g/J
4r	.	4gg\
8r	.	8b\
4.E-y\	6	(8cc\L
.	.	8b\)
.	.	8cc\J
4r	.	4gg\
8r	.	8b\
=12	=12	=12
4.F\	.	(8cc\L
.	.	8bn\)
.	.	8cc\J
4r	.	4aa-y\
8r	.	8cc\
4.F\	.	(8ff\L
.	.	8een\)
.	.	8ff\J
4.A-y\	6	(8ff\L
.	.	8ee\)
.	.	8ff\J
=13	=13	=13
4.G\	n	4.G/
4.BBn/	6 n	4gg\
.	.	8ff\
4C/	.	8ee-y\L
.	.	8ddn\
8F\	.	8cc\J
4G\	n	4g/
8GG/	.	8bn\
!!LO:LB:g=original
=14	=14	=14
4.C/	.	(8cc\L
.	.	8gg\)
.	.	8bn\J
4r	.	(8cc\L
.	.	8gg\)
8r	.	8b\J
4.C/	.	(8cc\L
.	.	8gg\)
.	.	8ee-y\J
4r	.	(8cc\L
.	.	8ee-y\)
8r	.	8cc\J
=15	=15	=15
4.C/	.	(8g/L
.	.	8cc/)
.	.	8g/J
4r	.	(8e-y/L
.	.	8g/)
8r	.	8e-y/J
[4.C/	.	[4.c/
4C/]	.	4c/]
=:|!|:	=:|!|:	=:|!|:
*>B	*>B	*>B
8r	.	8g/
=16	=16	=16
4.c\	.	(8cc\L
.	.	8bn\
.	.	8cc\J)
4.B-y\	4 2	(8cc\L
.	.	8b\
.	.	8cc\J)
4.A-y\	5	(8cc\L
.	.	8b\
.	.	8cc\J)
4.E-y\	6	8r
.	.	8r
.	.	8cc\
=17	=17	=17
4.F\	6nr	(8ddn\L
.	.	8ee-y\
.	.	8ff\J)
4.G\	6 4	(8ee-y\L
.	.	8ff\
.	5 n	8dd\J)
4.C/	.	(8ee-y\L
.	.	8dd\
.	.	8cc\J)
4r	.	8r
.	.	(8gg\L
8r	.	8ff\J
!!LO:LB:g=original
=18	=18	=18
4.C/	n	8een\L
.	.	8ddn\
.	.	8cc\J)
4.En\	5	4b-X\
.	.	8b-y\
4.F\	4nr	(4b-y\T
.	.	8an/)
4r	.	8r
.	.	(8aan\L
8r	.	8gg\J
=19	=19	=19
4.Dn\	#	8ff#X\L
.	.	8een\
.	.	8ddn\J)
4.F#X\	5	4cc\
.	.	8cc\
4.G\	4	(4cc\T
.	.	8bn\)
4.BBn/	6	4gg\
.	5	8ff\
=20	=20	=20
4.C/	.	(8ee-y\L
.	.	8ddn\
.	.	8cc\J)
4.F\	6-r	4dd-X\
.	.	8dd-y\
4.BBn/	5	4.ff\
4.GG/	n	4gg\
.	.	8ff\
=21	=21	=21
4C/	.	(8ee-y\L
.	.	8ddn\
8F\	.	8cc\J)
4G\	4	4g/
8GG/	n	8bn\
4.C/	.	4.cc\
4r	.	8r
.	.	(8gg\L
8r	.	8ff\J)
=22	=22	=22
4.c\	n	(8een\L
.	.	8ddn\
.	.	8cc\J)
4.C/	7 n	(8bb-y\L
.	.	8aa-y\
.	.	8gg\J)
4.F\	.	(8aa-y\L
.	.	8gg\
.	.	8ff\J)
4r	.	8r
.	.	8r
8r	.	8cc\
!!LO:LB:g=original
=23	=23	=23
4.A-y\	6	(8ff\L
.	.	8ee-X\
.	.	8ff\J)
4.An\	5	(8ee-y\L
.	.	8ddn\
.	.	8ee-y\J)
4.B-y\	n	(8dd\L
.	.	8cc\
.	.	8dd\J)
4r	.	4B-y/
8r	.	8dd\
=24	=24	=24
4.B-y\	6	(8gg\L
.	.	8ff\
.	.	8gg\J)
4.Bn\	5	(8ff\L
.	.	8een\
.	.	8ff\J)
4.c\	n	(8ee\L
.	.	8ddn\
.	.	8ee\J)
4r	.	4c/
8r	.	8ee\
=25	=25	=25
4.c\	6 4	(8aa-y\L
.	.	8gg\
.	.	8aa-y\J)
4.C/	5 4	(8gg\L
.	.	8ff\
.	.	8gg\J)
4.D-y\	5 3	(8ff\L
.	.	8een\
.	.	8ff\J)
4r	.	4d-y/
8r	.	8ff\
=26	=26	=26
4.G\	5	(8bb-y\L
.	.	8aa-y\
.	.	8gg\J)
4A-y\	6	4ccc\
8B-y\	.	8ff\
4c\	n	(8een\L
.	.	8ddn\
8B-y\	.	8cc\J)
4A-y\	6	4ff\
8G\	.	8gg\
=27	=27	=27
4F\	.	(8aa-y\L
.	.	8gg\
8B-y\	7 5	8ff\J)
4c\	5 4	4cc\
8C/	n	8een\
4.F\	.	(8ff\L
.	.	8gg\)
.	.	8ee-X\J
4r	.	(8dd-y\L
.	.	8ee-y\)
8r	.	8cc\J
!!LO:LB:g=original
=28	=28	=28
4.D-y\	6	(8b-y\L
.	.	8cc\)
.	.	8a-y\J
4.BB-y/	6	(8g/L
.	.	8a-y/)
.	5	8f/J
4.C/	n	(8en/L
.	.	8dn/)
.	.	8c/J
4r	.	4cc\
8r	.	8e/
=29	=29	=29
4.A-y\	6	(8f/L
.	.	8en/)
.	.	8f/J
4r	.	4cc\
8r	.	8e/
4.B-y\	.	(8f/L
.	.	8e/)
.	.	8f/J
4r	.	4dd-y\
8r	.	8f/
=30	=30	=30
4.G\	.	(8b-y/L
.	.	8an/)
.	.	8b-y/J
4.F\	4 2	(8b-y/L
.	.	8a/)
.	.	8b-y/J
4.En\	6	4.c/
4.C/	n	4cc\
.	.	8b-y\
=31	=31	=31
*>B1	*>B1	*>B1
4F\	.	8a-X/L
.	.	8g/
8B-y\	7 5	8f/J
4c\	5 4	4c/
8C/	n	8en/
[4.F\	.	[4.f/
4F\]	.	4f/]
=31:|!	=31:|!	=31:|!
*>B2	*>B2	*>B2
4F\	.	8a-X/L
.	.	8g/
8B-y\	7 5	8f/J
4c\	5 4	4c/
8C/	n	8en/
2.F\;	.	2.f/;
==	==	==
*-	*-	*-
!!!SMS: RV 21 / Estienne Roger, Amsterdam [facs.]
!!!ENC: Fran Bennion; rev. 04/21 E. Correia
!!!END: 2004/12/20
!!!ONB: Converted from MuseData with musedata2hum on Sat May 11 12:07:53 2024
!!!YEM: (C) 2004, 2004 Center for Computer Assisted Research in the Humanities.
!!!system-decoration: [(s1,s2)]
!!!URL-info: https://wiki.ccarh.org/wiki/MuseData:_Antonio_Vivaldi#Op._2:_Sonate_a_violino_e_basso_per_il_cembalo
!!!URL-pdf: https://pdf.musedata.org/vivaldi-op02-no10.pdf#page=3 MuseData edition
!!!URL-pdf: http://conquest.imslp.info/files/imglnks/usimg/b/b7/IMSLP99075-PMLP183164-Vivaldi_-_Sonatas_Op2.pdf#page=38 Estienne Roger Amsterdam: Estienne Roger, No.2, n.d.[1711].
!!!URL-youtube: https://www.youtube.com/watch?v=SiijZmW9jKM&t=5007s L'Arte dell'Arco
!!!title: @{OTL}, mov. @{OMV}
!!!filter-chint: chint -mid
!!!EEV: 2024/05/11
!!!source-file: https://bitbucket.org/musedata/vivaldi/src/master/roger/op2/no10/stage2/03/01
!!!source-file: https://bitbucket.org/musedata/vivaldi/src/master/roger/op2/no10/stage2/03/02
